src/xmb/monochrome/Sony - PlayStation Mobile (PSN).svg

<svg xmlns="http://www.w3.org/2000/svg" xml:space="preserve" viewBox="0 0 64 64"><path d="M56.53 37.53H7.48c-1.68 0-3.19-1.03-3.83-2.57-.37 2.02-.65 4.42-.65 7.22 0 5.83 1.19 10.3 1.99 12.49a2.63 2.63 0 0 0 2.48 1.72h49.05c.41 0 .81-.1 1.16-.27.6-.29 1.08-.8 1.32-1.45.82-2.18 2-6.66 2-12.49 0-2.8-.28-5.2-.65-7.21-.64 1.53-2.15 2.56-3.82 2.56m-44.76 2.24c0-.81 1.64-.81 1.64-.81s1.58 0 1.58.81v1.61s-.81 1.61-1.61 1.61c-.81 0-1.61-1.61-1.61-1.61zm-1.19 6.01H8.97c-.81 0-.81-1.64-.81-1.64s0-1.58.81-1.58h1.61s1.61.81 1.61 1.61c0 .81-1.61 1.61-1.61 1.61m1.19 2.8v-1.61s.81-1.61 1.61-1.61c.81 0 1.61 1.61 1.61 1.61v1.61c0 .81-1.64.81-1.64.81s-1.58 0-1.58-.81m4.76 5.62H15c-.45 0-.82-.37-.82-.82s.37-.82.82-.82h1.53c.45 0 .82.37.82.82s-.37.82-.82.82m1.26-8.42h-1.61s-1.61-.81-1.61-1.61c0-.81 1.61-1.61 1.61-1.61h1.61c.81 0 .81 1.64.81 1.64s-.01 1.58-.81 1.58m21.5 6.99H24.71c-2.39 0-4.33-1.94-4.33-4.33s1.94-4.33 4.33-4.33h14.58c2.39 0 4.33 1.94 4.33 4.33s-1.94 4.33-4.33 4.33m8.37 1.43h-1.53c-.45 0-.82-.37-.82-.82s.37-.82.82-.82h1.53c.45 0 .82.37.82.82s-.36.82-.82.82m-.51-8.32a1.71 1.71 0 1 1 0-3.42 1.71 1.71 0 1 1 0 3.42m3.47 3.47a1.71 1.71 0 1 1 0-3.42 1.71 1.71 0 1 1 0 3.42m0-6.94a1.71 1.71 0 1 1 0-3.42 1.71 1.71 0 1 1 0 3.42m3.47.06a1.71 1.71 0 1 1 0 3.42c-.94 0-1.71-.76-1.71-1.71.01-.95.77-1.71 1.71-1.71m.93 11.73h-1.53c-.45 0-.82-.37-.82-.82s.37-.82.82-.82h1.53c.45 0 .82.37.82.82s-.37.82-.82.82" style="fill:#fff"/><path d="M7.48 36.03h49.05c1.11 0 2.1-.69 2.48-1.72.81-2.19 1.99-6.67 1.99-12.49 0-5.91-1.21-10.1-2.02-12.43a2.64 2.64 0 0 0-2.5-1.78H7.53c-1.13 0-2.13.72-2.5 1.78C4.22 11.71 3 15.91 3 21.82c0 5.82 1.19 10.3 2 12.49a2.64 2.64 0 0 0 2.48 1.72m51.11-9.7-.98-.17c.11-1.11.19-2.32.21-3.58h.97c-.01 1.4-.09 2.65-.2 3.75m.2-4.75h-.97c-.02-1.26-.1-2.46-.21-3.58l.98-.17c.11 1.1.19 2.35.2 3.75m-1.5-9.85s.74 1.72 1.18 5.11l-.97.17c-.12-1.01-.26-1.91-.39-2.61-.32-1.76.18-2.67.18-2.67m-.18 18.04c.13-.71.27-1.6.39-2.61l.97.17c-.44 3.39-1.18 5.11-1.18 5.11s-.5-.92-.18-2.67M11.8 10.18h43v23h-43zm-6.37 8.64c.71.07 1.27 1.38 1.27 3 0 1.66-.6 3-1.33 3h-.01c-.1-.86-.16-1.76-.16-2.7 0-1.17.09-2.26.23-3.3" style="fill:#fff"/><path d="M27.46 51.77a4.31 4.31 0 0 0 1.58-3.33c0-1.34-.62-2.54-1.58-3.33m9.08 0c-.96.79-1.58 1.99-1.58 3.33s.62 2.54 1.58 3.33" style="fill:none;stroke:#fff;stroke-width:.75;stroke-linecap:round;stroke-linejoin:round;stroke-miterlimit:10"/><path d="M33.3 21.07h-7.26l3.63-7.26z" style="fill:#fff"/><path d="M34.39 23.37h5.08v5.08h-5.08z" style="fill:#fff" transform="rotate(-45.001 36.931 25.912)"/><circle cx="36.93" cy="17.44" r="3.63" style="fill:#fff"/><path d="M33.3 22.28h-1.33l-2.3 2.3-2.3-2.3h-1.33v1.33l2.3 2.3-2.3 2.3v1.33h1.33l2.3-2.3 2.3 2.3h1.33v-1.33l-2.3-2.3 2.3-2.3z" style="fill:#fff"/></svg>

<?xml version="1.0" encoding="utf-8"?>
<!-- Generator: Adobe Illustrator 26.3.1, SVG Export Plug-In . SVG Version: 6.00 Build 0)  -->
<svg version="1.1" id="Layer_1" xmlns="http://www.w3.org/2000/svg" xmlns:xlink="http://www.w3.org/1999/xlink" x="0px" y="0px"
	 viewBox="0 0 64 64" style="enable-background:new 0 0 64 64;" xml:space="preserve">
<g>
	<g>
		<path style="fill:#FFFFFF;" d="M56.53,37.53H7.48c-1.68,0-3.19-1.03-3.83-2.57C3.28,36.98,3,39.38,3,42.18
			c0,5.83,1.19,10.3,1.99,12.49c0.24,0.65,0.72,1.16,1.31,1.45c0.36,0.18,0.76,0.27,1.17,0.27h49.05c0.41,0,0.81-0.1,1.16-0.27
			c0.6-0.29,1.08-0.8,1.32-1.45c0.82-2.18,2-6.66,2-12.49c0-2.8-0.28-5.2-0.65-7.21C59.71,36.5,58.2,37.53,56.53,37.53z
			 M11.77,39.77c0-0.81,1.64-0.81,1.64-0.81s1.58,0,1.58,0.81v1.61c0,0-0.81,1.61-1.61,1.61c-0.81,0-1.61-1.61-1.61-1.61
			S11.77,39.77,11.77,39.77z M10.58,45.78H8.97c-0.81,0-0.81-1.64-0.81-1.64s0-1.58,0.81-1.58h1.61c0,0,1.61,0.81,1.61,1.61
			C12.19,44.98,10.58,45.78,10.58,45.78z M11.77,48.58v-1.61c0,0,0.81-1.61,1.61-1.61c0.81,0,1.61,1.61,1.61,1.61v1.61
			c0,0.81-1.64,0.81-1.64,0.81S11.77,49.39,11.77,48.58z M16.53,54.2c-0.45,0-1.07,0-1.53,0c-0.45,0-0.82-0.37-0.82-0.82
			s0.37-0.82,0.82-0.82c0.15,0,1.38,0,1.53,0c0.45,0,0.82,0.37,0.82,0.82S16.98,54.2,16.53,54.2z M17.79,45.78h-1.61
			c0,0-1.61-0.81-1.61-1.61c0-0.81,1.61-1.61,1.61-1.61h1.61c0.81,0,0.81,1.64,0.81,1.64S18.59,45.78,17.79,45.78z M39.29,52.77
			c-2.39,0-12.19,0-14.58,0s-4.33-1.94-4.33-4.33s1.94-4.33,4.33-4.33c0.79,0,13.79,0,14.58,0c2.39,0,4.33,1.94,4.33,4.33
			C43.62,50.83,41.68,52.77,39.29,52.77z M47.66,54.2c-0.45,0-1.07,0-1.53,0c-0.45,0-0.82-0.37-0.82-0.82s0.37-0.82,0.82-0.82
			c0.15,0,1.38,0,1.53,0c0.45,0,0.82,0.37,0.82,0.82S48.12,54.2,47.66,54.2z M47.15,45.88c-0.94,0-1.71-0.76-1.71-1.71
			c0-0.94,0.76-1.71,1.71-1.71c0.94,0,1.71,0.76,1.71,1.71C48.86,45.12,48.09,45.88,47.15,45.88z M50.62,49.35
			c-0.94,0-1.71-0.76-1.71-1.71c0-0.94,0.76-1.71,1.71-1.71c0.94,0,1.71,0.76,1.71,1.71C52.33,48.59,51.56,49.35,50.62,49.35z
			 M50.62,42.41c-0.94,0-1.71-0.76-1.71-1.71c0-0.94,0.76-1.71,1.71-1.71c0.94,0,1.71,0.76,1.71,1.71
			C52.33,41.64,51.56,42.41,50.62,42.41z M54.09,42.47c0.94,0,1.71,0.76,1.71,1.71c0,0.94-0.76,1.71-1.71,1.71
			c-0.94,0-1.71-0.76-1.71-1.71C52.39,43.23,53.15,42.47,54.09,42.47z M55.02,54.2c-0.45,0-1.07,0-1.53,0
			c-0.45,0-0.82-0.37-0.82-0.82s0.37-0.82,0.82-0.82c0.15,0,1.38,0,1.53,0c0.45,0,0.82,0.37,0.82,0.82S55.47,54.2,55.02,54.2z"/>
		<path style="fill:#FFFFFF;" d="M7.48,36.03h49.05c1.11,0,2.1-0.69,2.48-1.72C59.82,32.12,61,27.64,61,21.82
			c0-5.91-1.21-10.1-2.02-12.43c-0.37-1.07-1.37-1.78-2.5-1.78H7.53c-1.13,0-2.13,0.72-2.5,1.78C4.22,11.71,3,15.91,3,21.82
			c0,5.82,1.19,10.3,2,12.49C5.38,35.34,6.37,36.03,7.48,36.03z M58.59,26.33l-0.98-0.17c0.11-1.11,0.19-2.32,0.21-3.58h0.97
			C58.78,23.98,58.7,25.23,58.59,26.33z M58.79,21.58h-0.97c-0.02-1.26-0.1-2.46-0.21-3.58l0.98-0.17
			C58.7,18.93,58.78,20.18,58.79,21.58z M57.29,11.73c0,0,0.74,1.72,1.18,5.11l-0.97,0.17c-0.12-1.01-0.26-1.91-0.39-2.61
			C56.79,12.64,57.29,11.73,57.29,11.73z M57.11,29.77c0.13-0.71,0.27-1.6,0.39-2.61l0.97,0.17c-0.44,3.39-1.18,5.11-1.18,5.11
			S56.79,31.52,57.11,29.77z M11.8,10.18h43v23h-43V10.18z M5.43,18.82c0.71,0.07,1.27,1.38,1.27,3c0,1.66-0.6,3-1.33,3H5.36
			c-0.1-0.86-0.16-1.76-0.16-2.7C5.2,20.95,5.29,19.86,5.43,18.82z"/>
	</g>
	<path style="fill:none;stroke:#FFFFFF;stroke-width:0.75;stroke-linecap:round;stroke-linejoin:round;stroke-miterlimit:10;" d="
		M27.46,51.77c0.96-0.79,1.58-1.99,1.58-3.33c0-1.34-0.62-2.54-1.58-3.33"/>
	<path style="fill:none;stroke:#FFFFFF;stroke-width:0.75;stroke-linecap:round;stroke-linejoin:round;stroke-miterlimit:10;" d="
		M36.54,45.11c-0.96,0.79-1.58,1.99-1.58,3.33s0.62,2.54,1.58,3.33"/>
	<g>
		<polygon style="fill:#FFFFFF;" points="33.3,21.07 26.04,21.07 29.67,13.81 		"/>
		
			<rect x="34.39" y="23.37" transform="matrix(0.7071 -0.7071 0.7071 0.7071 -7.5054 33.7038)" style="fill:#FFFFFF;" width="5.08" height="5.08"/>
		<circle style="fill:#FFFFFF;" cx="36.93" cy="17.44" r="3.63"/>
		<polygon style="fill:#FFFFFF;" points="33.3,22.28 31.97,22.28 29.67,24.58 27.37,22.28 26.04,22.28 26.04,23.61 28.34,25.91 
			26.04,28.21 26.04,29.54 27.37,29.54 29.67,27.24 31.97,29.54 33.3,29.54 33.3,28.21 31,25.91 33.3,23.61 		"/>
	</g>
</g>
</svg>
